icons/svg/graph.svg

<svg width="24" height="24" viewBox="0 0 24 24" fill="none" xmlns="http://www.w3.org/2000/svg">
<path d="M3.5 4V16.5C3.5 18.7091 5.29086 20.5 7.5 20.5H20" stroke="currentColor" stroke-width="1.5" stroke-linecap="round" stroke-linejoin="round"/>
<path d="M7 14L10.2929 10.7071C10.6834 10.3166 11.3166 10.3166 11.7071 10.7071L13.0429 12.0429C13.4334 12.4334 14.0666 12.4334 14.4571 12.0429L19 7.5L19.6485 6.85147M15 6.5H18.8C19.1314 6.5 19.4314 6.63431 19.6485 6.85147M20 11.5V7.7C20 7.36863 19.8657 7.06863 19.6485 6.85147" stroke="currentColor" stroke-width="1.5" stroke-linecap="round" stroke-linejoin="round"/>
</svg>

<svg xmlns="http://www.w3.org/2000/svg" width="24" height="24" fill="none" viewBox="0 0 24 24"><path stroke="currentColor" stroke-linecap="round" stroke-linejoin="round" stroke-width="1.5" d="M3.5 4v12.5a4 4 0 0 0 4 4H20"/><path stroke="currentColor" stroke-linecap="round" stroke-linejoin="round" stroke-width="1.5" d="m7 14 3.293-3.293a1 1 0 0 1 1.414 0l1.336 1.336a1 1 0 0 0 1.414 0L19 7.5l.648-.649M15 6.5h3.8c.331 0 .631.134.848.351M20 11.5V7.7c0-.331-.134-.631-.352-.849"/></svg>
